assets/images/afrikons/next.svg

<svg viewBox="0 0 50 50" xmlns="http://www.w3.org/2000/svg"><path d="m0 0h50v50h-50z" fill="none"/><g fill="#0a0a0a"><path d="m0 13.87v22.26a3.3 3.3 0 0 0 5.08 2.77l17.22-11.14a3.28 3.28 0 0 0 0-5.52l-17.22-11.14a3.3 3.3 0 0 0 -5.08 2.77z"/><path d="m26.2 13.87v22.26a3.29 3.29 0 0 0 5.07 2.77l17.23-11.14a3.29 3.29 0 0 0 0-5.52l-17.23-11.14a3.29 3.29 0 0 0 -5.07 2.77z"/></g></svg>

<svg xmlns="http://www.w3.org/2000/svg" viewBox="0 0 50 50"><defs><style>.cls-1{fill:none;}.cls-2{fill:#0a0a0a;}</style></defs><title>next</title><g id="Layer_2" data-name="Layer 2"><g id="Layer_1-2" data-name="Layer 1"><rect class="cls-1" width="50" height="50"/><path class="cls-2" d="M0,13.87V36.13A3.3,3.3,0,0,0,5.08,38.9L22.3,27.76a3.28,3.28,0,0,0,0-5.52L5.08,11.1A3.3,3.3,0,0,0,0,13.87Z"/><path class="cls-2" d="M26.2,13.87V36.13a3.29,3.29,0,0,0,5.07,2.77L48.5,27.76a3.29,3.29,0,0,0,0-5.52L31.27,11.1A3.29,3.29,0,0,0,26.2,13.87Z"/></g></g></svg>
